images/partners/prom.svg

<svg width="150" height="42" viewBox="0 0 150 42" fill="none" xmlns="http://www.w3.org/2000/svg">
<path fill-rule="evenodd" clip-rule="evenodd" d="M58.8197 25.4733C59.9385 24.3545 60.4756 23.0119 60.4756 21.4448C60.4756 19.8784 59.9385 18.5358 58.8197 17.4617C57.7008 16.3428 56.3582 15.8058 54.7464 15.8058C53.0918 15.8058 51.7038 16.3428 50.5409 17.4617C49.422 18.5358 48.8388 19.8784 48.8388 21.4448C48.8388 23.0119 49.422 24.3545 50.5409 25.4733C51.7038 26.5481 53.0918 27.0845 54.7464 27.0845C56.3582 27.0845 57.7008 26.5481 58.8197 25.4733V25.4733ZM42.5732 41.361V10.1674H49.2416V13.1212C49.9129 11.1513 52.5534 9.76465 55.9554 9.76465C59.133 9.76465 61.8182 10.8835 63.9216 13.1653C66.0698 15.403 67.1439 18.1777 67.1439 21.4448C67.1439 24.7132 66.0698 27.4873 63.9216 29.7697C61.8182 32.0074 59.133 33.1263 55.9554 33.1263C52.5534 33.1263 49.9129 31.7396 49.2416 29.7697V41.361H42.5732V41.361Z" fill="white"/>
<path fill-rule="evenodd" clip-rule="evenodd" d="M70.5891 32.7236V10.1661H77.2582V13.2555C78.2875 10.9717 80.7035 9.67383 83.7923 9.67383C84.2398 9.67383 84.8216 9.71928 85.5377 9.80879V16.0744C84.8657 15.9401 84.1055 15.8506 83.3 15.8506C79.4959 15.8506 77.2582 17.9988 77.2582 21.7134V32.7236H70.5891Z" fill="white"/>
<path fill-rule="evenodd" clip-rule="evenodd" d="M95.1595 25.652C96.2784 26.7709 97.6664 27.3527 99.3216 27.3527C100.978 27.3527 102.365 26.7709 103.484 25.652C104.603 24.4891 105.186 23.1011 105.186 21.4452C105.186 19.7886 104.603 18.4019 103.484 17.283C102.365 16.1187 100.978 15.5383 99.3216 15.5383C97.6664 15.5383 96.2784 16.1187 95.1595 17.283C94.0406 18.4019 93.4588 19.7886 93.4588 21.4452C93.4588 23.1011 94.0406 24.5332 95.1595 25.652V25.652ZM108.184 12.9859C110.645 15.2684 111.853 18.0886 111.853 21.4452C111.853 24.8017 110.645 27.6212 108.184 29.9484C105.721 32.2316 102.768 33.3945 99.3216 33.3945C95.8315 33.3945 92.8777 32.2316 90.4149 29.9484C87.9995 27.6212 86.7898 24.8017 86.7898 21.4452C86.7898 18.0886 87.9995 15.2684 90.4149 12.9859C92.8777 10.6594 95.8315 9.49512 99.3216 9.49512C102.768 9.49512 105.721 10.6594 108.184 12.9859" fill="white"/>
<path fill-rule="evenodd" clip-rule="evenodd" d="M115.343 32.7236V10.1661H122.012V12.9863C122.862 11.0178 125.144 9.67383 127.875 9.67383C130.918 9.67383 132.976 10.8822 134.006 13.2555C135.26 10.8822 137.765 9.67383 141.525 9.67383C146.673 9.67383 149.537 13.1653 149.537 19.0281V32.7236H142.868V19.8337C142.868 17.1932 141.66 15.5821 139.512 15.5821C137.319 15.5821 135.752 17.4177 135.752 20.0575V32.7236H129.083V19.8337C129.083 17.1932 127.875 15.5821 125.727 15.5821C123.578 15.5821 122.012 17.4177 122.012 20.0575V32.7236H115.343V32.7236Z" fill="white"/>
<path fill-rule="evenodd" clip-rule="evenodd" d="M0 33.0492H33.0492V0H0V33.0492ZM7.57377 25.4754H25.4754V7.57377H7.57377V25.4754Z" fill="url(#paint0_linear_46_562)"/>
<defs>
<linearGradient id="paint0_linear_46_562" x1="0" y1="0" x2="33.0492" y2="33.0492" gradientUnits="userSpaceOnUse">
<stop stop-color="#4854A2"/>
<stop offset="1" stop-color="#772088"/>
</linearGradient>
</defs>
</svg>

<svg width="150" height="42" fill="none" xmlns="http://www.w3.org/2000/svg"><path fill-rule="evenodd" clip-rule="evenodd" d="M58.82 25.473c1.118-1.118 1.656-2.461 1.656-4.028 0-1.567-.538-2.91-1.656-3.983-1.12-1.12-2.462-1.656-4.074-1.656-1.654 0-3.042.537-4.205 1.656-1.119 1.074-1.702 2.416-1.702 3.983 0 1.567.583 2.91 1.702 4.028 1.163 1.075 2.55 1.611 4.205 1.611 1.612 0 2.955-.536 4.074-1.61zM42.573 41.361V10.167h6.669v2.954c.67-1.97 3.311-3.356 6.713-3.356 3.178 0 5.863 1.118 7.967 3.4 2.148 2.238 3.222 5.013 3.222 8.28 0 3.268-1.074 6.042-3.222 8.325-2.104 2.237-4.789 3.356-7.967 3.356-3.402 0-6.042-1.386-6.713-3.356v11.59h-6.669zm28.017-8.637V10.166h6.668v3.09c1.03-2.284 3.446-3.582 6.534-3.582.448 0 1.03.045 1.746.135v6.265a11.484 11.484 0 00-2.238-.223c-3.804 0-6.042 2.148-6.042 5.862v11.01H70.59zm24.57-7.072c1.118 1.119 2.506 1.7 4.162 1.7 1.656 0 3.043-.581 4.162-1.7 1.119-1.163 1.702-2.55 1.702-4.207 0-1.656-.583-3.043-1.702-4.162-1.119-1.164-2.506-1.745-4.162-1.745-1.656 0-3.044.58-4.163 1.745-1.118 1.119-1.7 2.506-1.7 4.162 0 1.656.582 3.088 1.7 4.207zm13.024-12.666c2.461 2.282 3.669 5.103 3.669 8.46 0 3.356-1.208 6.175-3.669 8.502-2.463 2.284-5.416 3.447-8.862 3.447-3.49 0-6.444-1.163-8.907-3.447-2.416-2.327-3.625-5.146-3.625-8.503 0-3.356 1.21-6.177 3.625-8.46 2.463-2.326 5.416-3.49 8.907-3.49 3.446 0 6.399 1.164 8.862 3.49m7.159 19.739V10.166h6.669v2.82c.85-1.968 3.132-3.312 5.863-3.312 3.043 0 5.101 1.208 6.131 3.582 1.254-2.374 3.759-3.582 7.519-3.582 5.148 0 8.012 3.491 8.012 9.354v13.696h-6.669v-12.89c0-2.64-1.208-4.252-3.356-4.252-2.193 0-3.76 1.836-3.76 4.476v12.666h-6.669v-12.89c0-2.64-1.208-4.252-3.356-4.252-2.149 0-3.715 1.836-3.715 4.476v12.666h-6.669z" fill="#fff"/><path fill-rule="evenodd" clip-rule="evenodd" d="M0 33.05h33.05V0H0v33.05zm7.574-7.575h17.901V7.574H7.574v17.901z" fill="url(#paint0_linear_46_562)"/><defs><linearGradient id="paint0_linear_46_562" x1="0" y1="0" x2="33.049" y2="33.049" gradientUnits="userSpaceOnUse"><stop stop-color="#4854A2"/><stop offset="1" stop-color="#772088"/></linearGradient></defs></svg>
